X:6501
T: Avre Este Abajour
O: Klezmer
Z: Temple Aliyah Klezmer Band Song Book
F: https://www.youtube.com/watch?v=b0zzbny0Zhg
F: https://www.youtube.com/watch?v=dsCjCB4iYK0
M: 6/8
L: 1/8
K: F#Phr
Q: 1/4=120
"D"A2 A AGA       |"A7"BAF "D" F3       | ABc "Bm"d2 A      |\
"Em" BGB "A7"A2 c |:"F#7" edc dGc       |"C#7"dcB "F#7" A3  |
"D"FGA "G"B2 B    |[1"A7"A2G "D"F2c     :|[2"A7"A2 G "D" F3 |\
AAA AGA           |"A7" BAG "D" F3      |ABc "Bm" d2 A      |
"Em" BGB "A7" A2 c|:"F#7" edc "Bm" dBc  |"C#7" dcB "F#m" A3 |\
"D" FGA "G" B2 B  |[1 "A7" A2G "D" F2 c :|[2 "A7" A2G "D" F3|
